X: 30692
T: LONDON HORNPIPE
C:
%R: hornpipe, reel
B: Elias Howe "The Musician's Companion" Part 3 1844 p.69 #2
S: http://imslp.org/wiki/The_Musician's_Companion_(Howe,_Elias)
Z: 2015 John Chambers <jc:trillian.mit.edu>
N: The G+F in bar 8 might have been inked in after printing.
M: C|
L: 1/8
K: G
% - - - - - - - - - - - - - - - - - - - - - - - - -
D2 |\
(GA).B.c (dc).B.A | (gf).g.e e2d2 |\
(Bd).B.G (ce).c.A | (Bd)BG GFED |\
(GA).B.c (dB).A.G | gfge e2d2 |\
BdBG cecA | G2[G2F2]G2 :|
|: d2 |\
defg (ga).f.d | (gb).g.e (fa).f.d |\
(de).f.g (af).d.c | (Bd).B.G (FA).F.D |\
(Bd).B.G (ce).c.A | (ga).f.d (gb).g.e |\
(dg).f.e dcBA | G2F2G2 :|
% - - - - - - - - - - - - - - - - - - - - - - - - -
